share/icons/hicolor/cursors/node-dragging.svg

<?xml version="1.0" encoding="UTF-8" standalone="no"?>
<svg xmlns="http://www.w3.org/2000/svg"
     xmlns:inkscape="http://www.inkscape.org/namespaces/inkscape"
     width="32" height="32"
     inkscape:hotspot_x="2"
     inkscape:hotspot_y="2"
     style="fill:gray;stroke:black">

  <defs>
    <!-- Shadow -->
    <filter id="shadow" x="-0.5" y="-0.5" width="2" height="2">
      <feOffset result="offOut" in="SourceAlpha" dx="1" dy="1" />
      <feGaussianBlur result="blurOut" stdDeviation="1" />
      <feBlend in="SourceGraphic" in2="blurOut" mode="normal" />
    </filter>
  </defs>

  <g id="cursor" style="filter:url(#shadow);stroke-linejoin:miter;stroke-miterlimit:10">
    <!-- Triangle -->
    <path d="m 4.5,4.5 l 18,10 l -8,8 z" style="stroke:white;stroke-width:3px"/>
    <path d="m 4.5,4.5 l 18,10 l -8,8 z" style="stroke-width:1px"/>

    <!-- Outline (cross) -->
    <path d="m 23.5,29 l -5.5,-5.5 l 5.5,-5.5 l 5.5,5.5 z"
          style="fill:black;stroke:black;stroke-width:3px"/>

    <!-- Cross -->
    <path d="m 27.5,23.5 v 1.5 l 1.5,-1.5 l -1.5,-1.5 v 1.5 h -8 v 1.5 l -1.5,-1.5 l 1.5,-1.5 v 1.5
             m 4,-4 h 1.5 l -1.5,-1.5 l -1.5,1.5 h 1.5 v 8 h 1.5 l -1.5,1.5 l -1.5,-1.5 h 1.5"
          style="fill:white;stroke:white;stroke-width:1px"/>
  </g>

</svg>

<?xml version="1.0" encoding="UTF-8" standalone="no"?>
<svg
   xmlns:dc="http://purl.org/dc/elements/1.1/"
   xmlns:cc="http://creativecommons.org/ns#"
   xmlns:rdf="http://www.w3.org/1999/02/22-rdf-syntax-ns#"
   xmlns:svg="http://www.w3.org/2000/svg"
   xmlns="http://www.w3.org/2000/svg"
   xmlns:sodipodi="http://sodipodi.sourceforge.net/DTD/sodipodi-0.dtd"
   xmlns:inkscape="http://www.inkscape.org/namespaces/inkscape"
   width="32"
   height="32"
   inkscape:hotspot_x="2"
   inkscape:hotspot_y="2"
   style="fill:gray;stroke:black"
   version="1.1"
   id="svg20"
   sodipodi:docname="node-dragging.svg"
   inkscape:version="1.0.1 (3bc2e81, 2020-09-07)">
  <style
     id="style849"></style>
  <metadata
     id="metadata24">
    <rdf:RDF>
      <cc:Work
         rdf:about="">
        <dc:format>image/svg+xml</dc:format>
        <dc:type
           rdf:resource="http://purl.org/dc/dcmitype/StillImage" />
      </cc:Work>
    </rdf:RDF>
  </metadata>
  <sodipodi:namedview
     pagecolor="#ffffff"
     bordercolor="#666666"
     borderopacity="1"
     objecttolerance="10"
     gridtolerance="10"
     guidetolerance="10"
     inkscape:pageopacity="0"
     inkscape:pageshadow="2"
     inkscape:window-width="2602"
     inkscape:window-height="1790"
     id="namedview22"
     showgrid="false"
     inkscape:zoom="22.28125"
     inkscape:cx="16"
     inkscape:cy="16"
     inkscape:window-x="123"
     inkscape:window-y="-11"
     inkscape:window-maximized="1"
     inkscape:current-layer="cursor" />
  <defs
     id="defs9">
    <!-- Shadow -->
    <filter
       id="shadow"
       x="-0.5"
       y="-0.5"
       width="2"
       height="2">
      <feOffset
         result="offOut"
         in="SourceAlpha"
         dx="1"
         dy="1"
         id="feOffset2" />
      <feGaussianBlur
         result="blurOut"
         stdDeviation="1"
         id="feGaussianBlur4" />
      <feBlend
         in="SourceGraphic"
         in2="blurOut"
         mode="normal"
         id="feBlend6" />
    </filter>
    <filter
       id="shadow-3"
       x="-0.5"
       y="-0.5"
       width="2"
       height="2">
      <feOffset
         result="offOut"
         in="SourceAlpha"
         dx="1"
         dy="1"
         id="feOffset2-8" />
      <feGaussianBlur
         result="blurOut"
         stdDeviation="1"
         id="feGaussianBlur4-0" />
      <feBlend
         in="SourceGraphic"
         in2="blurOut"
         mode="normal"
         id="feBlend6-7" />
    </filter>
  </defs>
  <g
     id="cursor"
     style="stroke-linejoin:miter;stroke-miterlimit:10;filter:url(#shadow)">
    <!-- Triangle -->
    <!-- Outline (cross) -->
    <path
       d="M 23.5,29 18,23.5 23.5,18 29,23.5 Z"
       style="fill:#000000;stroke:#000000;stroke-width:3px"
       id="path15" />
    <!-- Cross -->
    <path
       d="M 27.5,23.5 V 25 L 29,23.5 27.5,22 v 1.5 h -8 V 25 L 18,23.5 19.5,22 v 1.5 m 4,-4 H 25 L 23.5,18 22,19.5 h 1.5 v 8 H 25 L 23.5,29 22,27.5 h 1.5"
       style="fill:#ffffff;stroke:#ffffff;stroke-width:1px"
       id="path17" />
    <path
       d="M 5.5,5.5 17,13 13.5,14 12,18 Z"
       style="fill:#808080;stroke:#ffffff;stroke-width:3px;stroke-linejoin:miter;stroke-miterlimit:10"
       id="path11"
       sodipodi:nodetypes="ccccc" />
    <path
       d="M 5.5,5.5 17,13 13.5,14 12,18 Z"
       style="fill:#808080;stroke:#000000;stroke-width:1px;stroke-linejoin:miter;stroke-miterlimit:10"
       id="path13"
       sodipodi:nodetypes="ccccc" />
  </g>
</svg>
